X: 59
T:Good natured man, The
M:4/4
L:1/8
R:Hornpipe
Z:Andrew Pickering, 17/2/1999
K:G
ef|g2 bg degd|BcdB GABG|cBcd cBAG|FGAB cdef|
g2 bg degd|BcdB GABG|cBcd cBAG|(3ABA GF G2:|
Bc|dBdB ~g3f|ecec ~a3g|f2 df g2 eg|fgaf defd|g2 bg degd|
BcdB GABG|cBcd cBAG|(3ABA GF G2:|
<end>
<start>
